react/assets/icons/hourglass.svg

<svg role="img" xmlns="http://www.w3.org/2000/svg" width="48px" height="48px" viewBox="0 0 24 24" aria-labelledby="hourglassIconTitle" stroke-linecap="square" stroke-linejoin="miter" fill="none"> <title id="hourglassIconTitle">Hourglass</title> <path d="M16.7647059,7.82108056 L16.7647059,5 C16.7647059,3.8954305 15.8692754,3 14.7647059,3 L9.23529412,3 C8.13072462,3 7.23529412,3.8954305 7.23529412,5 L7.23529412,7.82108056 L11.4142136,12 L7.23529412,16.1789194 L7.23529412,19 C7.23529412,20.1045695 8.13072462,21 9.23529412,21 L14.7647059,21 C15.8692754,21 16.7647059,20.1045695 16.7647059,19 L16.7647059,16.1789194 L12.5857864,12 L16.7647059,7.82108056 Z"/> </svg>

<svg xmlns="http://www.w3.org/2000/svg" width="48" height="48" viewBox="0 0 24 24" aria-labelledby="hourglassIconTitle" stroke-linecap="square" fill="none"><path d="M16.765 7.821V5a2 2 0 00-2-2h-5.53a2 2 0 00-2 2v2.821L11.415 12l-4.18 4.179V19a2 2 0 002 2h5.53a2 2 0 002-2v-2.821L12.585 12l4.18-4.179z"/></svg>
